!!!OTL: Gebeth thut noth.
!!!OTL-incipit: BET, KINDCHEN, BET
!!!ARE: Europa, Mitteleuropa, Deutschland, Niederrhein
!!!SCT: Z1366
!!!TXL: @@DE
!!!YEM: Copyright 1995, estate of Helmut Schaffrath.
**kern	**text
*ICvox	*
*M2/4	*
*k[b-e-a-]	*
*E-:	*
=1	=1
!LO:TX:a:t=Vom Rheine.	!
{4g	Bet,
8f	Kind-
8f	-chen,
=2	=2
4e-	bet!
4r}	.
=3	=3
{8g	Mor-
8a-	-gen
8f	kommt
8g	der
=4	=4
4e-	Schwed,
4r}	.
=5	=5
{8b-	morgen
8b-	.
8b-	kommt
8b-	der
=6	=6
8cc	Oxenſtern,
8cc	.
4cc}	.
=7	=7
{8a-	will
8a-	das
8a-	Kindlein
8a-	.
=8	=8
8b-	be-
8b-	-ten
4b-}	lern'n!
=9	=9
{4g	Bet,
8f	Kind-
8f	-chen,
=10	=10
4e-	bet!
4r}	.
==	==
!!!AGN: Kinder - Lied
!!!ONB: ESAC (Essen Associative Code) Database: ZUCCAL
!!!AMT: simple duple
!!!AIN: vox
!!!EED: Helmut Schaffrath
!!!EEV: 1.0
!!!GTL: IX. Kinder- Lieder.
!!!URL-scan: https://www.digitale-sammlungen.de/de/view/bsb11160573?page=669
!!!ENC: Anna Maria Matuszewska
!!!EEV: 2025/02/07
*-	*-
